!!!OTL: 248. Olandre (lyondre)
!!!Genre:	Olandre (lyondre)
!!!Mode:	Minor
!!!Listening/dance:	dance
!!!:	*B-:
!!!One_Mode:	no
**kern
*thru
*I"P1
*clefG2
*k[b-e-]
!!!Begin-Modulation
*B-:
*M3/4
*>A
!LO:TX:a:i:t=Bb-major
4f
=1
4b-
4dd
(8qdd/
8ccL)
8b-J
=2
8b-L
8f
8b-
8dd
8cc
8fJ
=3
4b-
4dd
(16ccLL
16ddJ
8ccJ)
=4
4.b-
8r
4f
=5
4b-
4dd
(8qdd/
8.ccL)
16b-Jk
=6
8b-L
8f
8b-
8ddJ
4f
=7
4b-
4dd
(16ccLL
16ddJ
8ccJ)
=
4b-
8r
=8||
*>B
!!!End-Modulation
*-
